X:189
T: HEUTE SCHEID ICH, HEUTE WANDRE ICH, KEINE SEELE WEINT UM MICH
N: Z0188
O: Europa, Mitteleuropa, Deutschland, Schwaben
R: Soldaten - Lied
M: 3/4
L: 1/16
K: C
G,3G, | C4E4D2C2 | B,3CD4
C2D2 | E2F2G4F2E2 | D4z4
G2G2 | G2F2D4E2D2 | C3DE4
G2G2 | G2F2D4E2D2 | C3DE4z4 |
G8F4 | E2E2E4D4 | C8

@@@ Tune index: 9947
